icons/op-quote2-24.svg

<svg width="24" height="24" viewBox="0 0 24 24" fill="none" xmlns="http://www.w3.org/2000/svg">
<path d="M4 12.5427C4 7.80905 6.79216 6.1809 10.8392 6L11.4039 8.47236C9.36471 8.71357 8.39216 9.61809 8.39216 11.1256H11.0588V18H4V12.5427ZM12.5961 12.5427C12.5961 7.80905 15.3882 6.1809 19.4353 6L20 8.47236C17.9608 8.71357 16.9882 9.61809 16.9882 11.1256H19.6549V18H12.5961V12.5427Z" fill="black"/>
</svg>

<svg xmlns="http://www.w3.org/2000/svg" width="24" height="24" viewBox="0 0 24 24"><path d="M4 12.543C4 7.809 6.792 6.181 10.839 6l.565 2.472c-2.039.242-3.012 1.146-3.012 2.654h2.667V18H4v-5.457Zm8.596 0c0-4.734 2.792-6.362 6.839-6.543L20 8.472c-2.039.242-3.012 1.146-3.012 2.654h2.667V18h-7.059v-5.457Z"/></svg>
